frontend/assets/meetingroom.svg

<svg fill="#000000" xmlns="http://www.w3.org/2000/svg" viewBox="0 0 100 100" preserveAspectRatio="none"><path d="M 50 17 C 46.145851 17 43 20.145851 43 24 C 43 27.854149 46.145851 31 50 31 C 53.854149 31 57 27.854149 57 24 C 57 20.145851 53.854149 17 50 17 z M 50 19 C 52.773268 19 55 21.226732 55 24 C 55 26.773268 52.773268 29 50 29 C 47.226732 29 45 26.773268 45 24 C 45 21.226732 47.226732 19 50 19 z M 20 23 C 16.145851 23 13 26.145851 13 30 C 13 33.854149 16.145851 37 20 37 C 23.854149 37 27 33.854149 27 30 C 27 26.145851 23.854149 23 20 23 z M 80 23 C 76.145851 23 73 26.145851 73 30 C 73 33.854149 76.145851 37 80 37 C 83.854149 37 87 33.854149 87 30 C 87 26.145851 83.854149 23 80 23 z M 20 25 C 22.773268 25 25 27.226732 25 30 C 25 32.773268 22.773268 35 20 35 C 17.226732 35 15 32.773268 15 30 C 15 27.226732 17.226732 25 20 25 z M 80 25 C 82.773268 25 85 27.226732 85 30 C 85 32.773268 82.773268 35 80 35 C 77.226732 35 75 32.773268 75 30 C 75 27.226732 77.226732 25 80 25 z M 50 33 C 44.488666 33 40 37.488666 40 43 L 40 51 L 33 51 A 1.0001 1.0001 0 1 0 33 53 L 41 53 L 59 53 L 67 53 A 1.0001 1.0001 0 1 0 67 51 L 60 51 L 60 43 C 60 37.488666 55.511334 33 50 33 z M 50 35 C 54.430666 35 58 38.569334 58 43 L 58 51 L 42 51 L 42 43 C 42 38.569334 45.569334 35 50 35 z M 49.490234 37.025391 A 0.50005 0.50005 0 0 0 49.455078 37.027344 C 46.398945 37.303145 44 39.875743 44 43 L 44 48.5 A 0.50005 0.50005 0 1 0 45 48.5 L 45 43 C 45 40.386257 46.995059 38.253588 49.544922 38.023438 A 0.50005 0.50005 0 0 0 49.490234 37.025391 z M 52.488281 37.611328 A 0.50005 0.50005 0 0 0 52.271484 38.558594 C 53.206183 39.040077 53.972318 39.797381 54.449219 40.728516 A 0.50052251 0.50052251 0 0 0 55.339844 40.271484 C 54.764744 39.148619 53.843817 38.244438 52.728516 37.669922 A 0.50005 0.50005 0 0 0 52.488281 37.611328 z M 20 39 C 15.593562 39 12 42.593562 12 47 L 12 60.5 C 12 64.63039 15.36961 68 19.5 68 L 30.375 68 L 32.005859 82.115234 A 1.0001 1.0001 0 0 0 33 83 L 38 83 A 1.0001 1.0001 0 0 0 39 82 L 39 62.5 C 39 59.474423 36.525577 57 33.5 57 L 28 57 L 28 47 C 28 42.593562 24.406438 39 20 39 z M 80 39 C 75.593562 39 72 42.593562 72 47 L 72 57 L 66.5 57 C 63.474423 57 61 59.474423 61 62.5 L 61 82 A 1.0001 1.0001 0 0 0 62 83 L 67 83 A 1.0001 1.0001 0 0 0 67.994141 82.115234 L 69.625 68 L 80.5 68 C 84.63039 68 88 64.63039 88 60.5 L 88 47 C 88 42.593562 84.406438 39 80 39 z M 20 41 C 23.325562 41 26 43.674438 26 47 L 26 58 L 23.5 58 C 21.561258 58 20 56.438742 20 54.5 L 20 50.5 A 0.50005 0.50005 0 0 0 19.492188 49.992188 A 0.50005 0.50005 0 0 0 19 50.5 L 19 54.5 C 19 56.979258 21.020742 59 23.5 59 L 27.5 59 L 33.5 59 C 35.444423 59 37 60.555577 37 62.5 L 37 81 L 33.890625 81 L 32.259766 66.884766 A 1.0001 1.0001 0 0 0 31.267578 66 L 19.5 66 C 16.45039 66 14 63.54961 14 60.5 L 14 47 C 14 43.674438 16.674438 41 20 41 z M 80 41 C 83.325562 41 86 43.674438 86 47 L 86 60.5 C 86 63.54961 83.54961 66 80.5 66 L 68.732422 66 A 1.0001 1.0001 0 0 0 67.740234 66.884766 L 66.109375 81 L 63 81 L 63 62.5 C 63 60.555577 64.555577 59 66.5 59 L 73 59 L 76.5 59 C 78.979258 59 81 56.979258 81 54.5 L 81 50.5 A 0.50005 0.50005 0 0 0 80.492188 49.992188 A 0.50005 0.50005 0 0 0 80 50.5 L 80 54.5 C 80 56.438742 78.438742 58 76.5 58 L 74 58 L 74 47 C 74 43.674438 76.674438 41 80 41 z M 55.470703 41.992188 A 0.50005 0.50005 0 0 0 54.976562 42.544922 C 54.99064 42.699763 55 42.850724 55 43 L 55 43.5 A 0.50005 0.50005 0 1 0 56 43.5 L 56 43 C 56 42.811276 55.988576 42.630237 55.972656 42.455078 A 0.50005 0.50005 0 0 0 55.470703 41.992188 z M 19.492188 45.992188 A 0.50005 0.50005 0 0 0 19 46.5 L 19 48.5 A 0.50005 0.50005 0 1 0 20 48.5 L 20 46.5 A 0.50005 0.50005 0 0 0 19.492188 45.992188 z M 80.492188 45.992188 A 0.50005 0.50005 0 0 0 80 46.5 L 80 48.5 A 0.50005 0.50005 0 1 0 81 48.5 L 81 46.5 A 0.50005 0.50005 0 0 0 80.492188 45.992188 z M 8.984375 46.986328 A 1.0001 1.0001 0 0 0 8 48 L 8 61 C 8 67.063407 12.936593 72 19 72 L 25 72 A 1.0001 1.0001 0 1 0 25 70 L 19 70 C 14.017407 70 10 65.982593 10 61 L 10 48 A 1.0001 1.0001 0 0 0 8.984375 46.986328 z M 90.984375 46.986328 A 1.0001 1.0001 0 0 0 90 48 L 90 61 C 90 65.982593 85.982593 70 81 70 L 75 70 A 1.0001 1.0001 0 1 0 75 72 L 81 72 C 87.063407 72 92 67.063407 92 61 L 92 48 A 1.0001 1.0001 0 0 0 90.984375 46.986328 z"/></svg>

<svg xmlns="http://www.w3.org/2000/svg" viewBox="0 0 100 100" preserveAspectRatio="none"><path d="M50 17c-3.854 0-7 3.146-7 7s3.146 7 7 7 7-3.146 7-7-3.146-7-7-7zm0 2c2.773 0 5 2.227 5 5s-2.227 5-5 5-5-2.227-5-5 2.227-5 5-5zm-30 4c-3.854 0-7 3.146-7 7s3.146 7 7 7 7-3.146 7-7-3.146-7-7-7zm60 0c-3.854 0-7 3.146-7 7s3.146 7 7 7 7-3.146 7-7-3.146-7-7-7zm-60 2c2.773 0 5 2.227 5 5s-2.227 5-5 5-5-2.227-5-5 2.227-5 5-5zm60 0c2.773 0 5 2.227 5 5s-2.227 5-5 5-5-2.227-5-5 2.227-5 5-5zm-30 8c-5.511 0-10 4.489-10 10v8h-7a1 1 0 100 2h34a1 1 0 100-2h-7v-8c0-5.511-4.489-10-10-10zm0 2c4.43 0 8 3.57 8 8v8H42v-8c0-4.43 3.57-8 8-8zm-.51 2.025a.5.5 0 00-.035.002A6.004 6.004 0 0044 43v5.5a.5.5 0 101 0V43a4.992 4.992 0 014.545-4.977.5.5 0 00-.055-.998zm2.998.586a.5.5 0 00-.217.948 5.03 5.03 0 012.178 2.17.5.5 0 00.89-.458 6.028 6.028 0 00-2.61-2.601.5.5 0 00-.24-.059zM20 39c-4.406 0-8 3.594-8 8v13.5c0 4.13 3.37 7.5 7.5 7.5h10.875l1.63 14.115A1 1 0 0033 83h5a1 1 0 001-1V62.5c0-3.026-2.474-5.5-5.5-5.5H28V47c0-4.406-3.594-8-8-8zm60 0c-4.406 0-8 3.594-8 8v10h-5.5c-3.026 0-5.5 2.474-5.5 5.5V82a1 1 0 001 1h5a1 1 0 00.994-.885L69.625 68H80.5c4.13 0 7.5-3.37 7.5-7.5V47c0-4.406-3.594-8-8-8zm-60 2c3.326 0 6 2.674 6 6v11h-2.5a3.493 3.493 0 01-3.5-3.5v-4a.5.5 0 00-.508-.508.5.5 0 00-.492.508v4c0 2.48 2.02 4.5 4.5 4.5h10c1.944 0 3.5 1.556 3.5 3.5V81h-3.11l-1.63-14.115a1 1 0 00-.992-.885H19.5c-3.05 0-5.5-2.45-5.5-5.5V47c0-3.326 2.674-6 6-6zm60 0c3.326 0 6 2.674 6 6v13.5c0 3.05-2.45 5.5-5.5 5.5H68.732a1 1 0 00-.992.885L66.11 81H63V62.5c0-1.944 1.556-3.5 3.5-3.5h10c2.48 0 4.5-2.02 4.5-4.5v-4a.5.5 0 00-.508-.508.5.5 0 00-.492.508v4c0 1.939-1.561 3.5-3.5 3.5H74V47c0-3.326 2.674-6 6-6zm-24.53.992a.5.5 0 00-.493.553c.014.155.023.306.023.455v.5a.5.5 0 101 0V43c0-.189-.011-.37-.027-.545a.5.5 0 00-.502-.463zm-35.978 4A.5.5 0 0019 46.5v2a.5.5 0 101 0v-2a.5.5 0 00-.508-.508zm61 0A.5.5 0 0080 46.5v2a.5.5 0 101 0v-2a.5.5 0 00-.508-.508zm-71.508.994A1 1 0 008 48v13c0 6.063 4.937 11 11 11h6a1 1 0 100-2h-6c-4.983 0-9-4.017-9-9V48a1 1 0 00-1.016-1.014zm82 0A1 1 0 0090 48v13c0 4.983-4.017 9-9 9h-6a1 1 0 100 2h6c6.063 0 11-4.937 11-11V48a1 1 0 00-1.016-1.014z"/></svg>
